icons/faucet-outline.svg

<svg width="24" height="24" viewBox="0 0 24 24" fill="none" xmlns="http://www.w3.org/2000/svg">
<path fill-rule="evenodd" clip-rule="evenodd" d="M19 17C20.3333 18.2636 21 19.2636 21 20C21 21.1046 20.1046 22 19 22C17.8954 22 17 21.1046 17 20C17 19.2636 17.6667 18.2636 19 17ZM12 6C12.5523 6 13 6.44772 13 7V8C13.7473 8 14.3989 8.40987 14.7422 9.01707C14.8259 9.00564 14.9123 9 15 9H17C19.7614 9 22 11.2386 22 14V15C22 15.5523 21.5523 16 21 16H17C16.4477 16 16 15.5523 16 15H15C14.9123 15 14.8259 14.9944 14.7412 14.9834C14.3989 15.5901 13.7473 16 13 16H9C7.89543 16 7 15.1046 7 14H6C5.44772 14 5 13.5523 5 13V11C5 10.4477 5.44772 10 6 10H7C7 8.89543 7.89543 8 9 8V7C9 6.44772 9.44772 6 10 6H12ZM3.5 8C3.74855 8 3.95471 8.22901 3.99346 8.52912L4 8.63158V15.3684C4 15.6824 3.8187 15.9428 3.58111 15.9917L3.5 16H2.5C2.25145 16 2.04529 15.771 2.00654 15.4709L2 15.3684V8.63158C2 8.31762 2.1813 8.05721 2.41889 8.00827L2.5 8H3.5ZM12 9H10V10H9V11H8V13H9V14H13V13H17C17.5523 13 18 13.4477 18 14H20C20 12.3431 18.6569 11 17 11H13V10H12V9ZM13.5263 2C13.7589 2 13.9523 2.17685 13.9924 2.41012L14 2.5V3.5C14 3.74549 13.8325 3.94961 13.6115 3.99195L13.5263 4H8.47368C8.24112 4 8.04773 3.82315 8.00763 3.58988L8 3.5V2.5C8 2.25451 8.16754 2.05039 8.38853 2.00805L8.47368 2H13.5263Z" fill="#3A3A47"/>
</svg>

<svg xmlns="http://www.w3.org/2000/svg" width="24" height="24" viewBox="0 0 24 24">
    <path fill="#3A3A47" fill-rule="evenodd" d="M19 17c1.333 1.264 2 2.264 2 3a2 2 0 1 1-4 0c0-.736.667-1.736 2-3zM12 6a1 1 0 0 1 1 1v1a2 2 0 0 1 1.742 1.017A1.91 1.91 0 0 1 15 9h2a5 5 0 0 1 5 5v1a1 1 0 0 1-1 1h-4a1 1 0 0 1-1-1h-1c-.088 0-.174-.006-.259-.017A1.997 1.997 0 0 1 13 16H9a2 2 0 0 1-2-2H6a1 1 0 0 1-1-1v-2a1 1 0 0 1 1-1h1a2 2 0 0 1 2-2V7a1 1 0 0 1 1-1h2zM3.5 8c.249 0 .455.229.493.53L4 8.631v6.736c0 .314-.181.575-.419.624L3.5 16h-1c-.249 0-.455-.229-.493-.53L2 15.369V8.632c0-.314.181-.575.419-.624L2.5 8h1zM12 9h-2v1H9v1H8v2h1v1h4v-1h4a1 1 0 0 1 1 1h2a3 3 0 0 0-3-3h-4v-1h-1V9zm1.526-7c.233 0 .426.177.466.41L14 2.5v1c0 .245-.168.45-.389.492L13.526 4H8.474a.482.482 0 0 1-.466-.41L8 3.5v-1c0-.245.168-.45.389-.492L8.474 2h5.052z"/>
</svg>
